static/assets/images/products/kubedb/kubedb.svg

<svg width="143" height="30" viewBox="0 0 143 30" fill="none" xmlns="http://www.w3.org/2000/svg">
<path d="M27.027 6.66516V23.5343L13.7859 29.1582V21.7203L21.2225 18.6367V9.02363L27.027 6.66516Z" fill="#7272E9"/>
<path d="M13.7859 0.862L27.027 6.66517L21.2225 9.02364L13.7859 5.75953L6.34928 9.02364L0.725342 6.66517L13.7859 0.862Z" fill="#7272E9"/>
<path d="M13.7859 21.7203V29.1582L0.725342 23.5343V6.66516L6.34928 9.02363V18.6367L13.7859 21.7203Z" fill="#7272E9"/>
<path d="M27.9339 6.66647V6.48453V6.30259L27.7519 6.122L14.1483 0.135534C14.0477 0.0481327 13.919 0 13.7858 0C13.6525 0 13.5238 0.0481327 13.4232 0.135534L0.182117 5.75948L0.000173868 5.94006V6.122V6.30259V23.1717C-0.00331436 23.3586 0.0457463 23.5427 0.141767 23.703C0.237787 23.8634 0.376908 23.9935 0.543288 24.0787L13.6025 29.7026H14.6887L27.7479 24.0787C27.9144 23.9938 28.0537 23.8637 28.1498 23.7033C28.2458 23.5429 28.2948 23.3586 28.291 23.1717L27.9284 6.66647H27.9339ZM13.7858 1.94953L24.4878 6.66647L21.2223 8.11659L14.1483 5.03306C14.0477 4.94566 13.919 4.89753 13.7858 4.89753C13.6525 4.89753 13.5238 4.94566 13.4232 5.03306L6.34917 7.936H6.16723L3.0837 6.66647L13.7858 1.94953ZM12.8788 27.7067L1.63223 22.8037V7.936L5.44217 9.56534V18.4588C5.43853 18.6457 5.48752 18.8299 5.58356 18.9903C5.67959 19.1507 5.81881 19.2808 5.98529 19.3658L12.8788 22.2606V27.7067ZM13.7858 20.8146L7.25617 18.099V9.75L13.7858 6.84706L20.3153 9.75V18.0936L13.7858 20.8146ZM25.9393 22.8037L14.6928 27.7013V22.4466L21.5849 19.5451C21.7516 19.4603 21.8909 19.3302 21.987 19.1698C22.0831 19.0093 22.1319 18.825 22.128 18.6381V9.56806L25.9379 7.93872L25.9393 22.8037Z" fill="#4949A3"/>
<path d="M21.2225 18.6367V9.02364L13.7859 5.75952V15.3726L21.2225 18.6367Z" fill="white"/>
<path d="M21.2223 18.6367L13.7857 15.3726L6.34912 18.6367L13.7857 21.7203L21.2223 18.6367Z" fill="white"/>
<path d="M13.7857 15.3726V5.75952L6.34912 9.02364V18.6367L13.7857 15.3726Z" fill="white"/>
<path d="M21.5848 8.11661L14.1482 5.03308H13.0619L5.98789 8.11661C5.624 8.29855 5.26147 8.65972 5.26147 9.02361V18.6367C5.26147 19.0006 5.44342 19.3631 5.98789 19.5437L13.4231 22.8038C13.5227 22.8931 13.6518 22.9425 13.7856 22.9425C13.9194 22.9425 14.0485 22.8931 14.1482 22.8038L21.5848 19.5451C21.9486 19.3645 22.3112 19.002 22.3112 18.6381V9.02497C22.3112 8.66108 21.9486 8.29855 21.5848 8.11661ZM7.26149 9.75002L12.8841 7.39155V15.0101L7.26149 17.3726V9.75002ZM13.7911 20.8146L8.7116 18.6422L13.7911 16.4697L18.8705 18.6422L13.7911 20.8146ZM20.3207 17.1866L14.6981 14.8281V7.20961L20.3207 9.56808V17.1866Z" fill="#4949A3"/>
<path d="M142.592 3.91153V26.573C142.583 26.6503 142.572 26.7277 142.562 26.8051C142.482 27.5063 142.139 28.1509 141.602 28.6096C141.071 29.0801 140.382 29.334 139.673 29.3211H125.874C125.265 29.3136 124.675 29.1056 124.197 28.7291C123.839 28.462 123.55 28.1131 123.354 27.7116C123.158 27.31 123.061 26.8675 123.071 26.4209C123.071 20.7698 123.071 15.1196 123.071 9.4703V4.03916C123.063 3.49585 123.215 2.96212 123.508 2.50487C123.769 2.07649 124.138 1.72498 124.579 1.48638C125.019 1.24778 125.515 1.13068 126.016 1.14708C130.557 1.14708 135.097 1.14708 139.638 1.14708C139.835 1.147 140.031 1.16335 140.226 1.19596C140.807 1.30257 141.342 1.58571 141.758 2.00693C142.173 2.42815 142.449 2.96703 142.547 3.55036C142.564 3.67799 142.577 3.79476 142.592 3.91153ZM125.028 15.2355C125.028 18.9467 125.028 22.6539 125.028 26.3571C125.025 26.426 125.029 26.4951 125.039 26.5634C125.075 26.777 125.187 26.9703 125.355 27.1079C125.522 27.2455 125.733 27.3183 125.95 27.3129H139.682C139.808 27.3165 139.934 27.2939 140.051 27.2466C140.168 27.1993 140.273 27.1284 140.362 27.0382C140.45 26.9481 140.518 26.8406 140.563 26.7227C140.607 26.6048 140.627 26.4789 140.621 26.353C140.621 23.9524 140.621 21.5537 140.621 19.1567C140.621 14.1547 140.621 9.15303 140.621 4.15186C140.623 4.04577 140.611 3.93988 140.585 3.83685C140.533 3.64109 140.416 3.46896 140.253 3.34878C140.089 3.22859 139.89 3.16752 139.688 3.17561H126.789C126.496 3.17561 126.202 3.16747 125.909 3.17561C125.789 3.17934 125.671 3.20559 125.56 3.25301C125.394 3.32316 125.254 3.44282 125.158 3.59566C125.063 3.74851 125.017 3.92709 125.026 4.10705C125.029 7.81652 125.03 11.526 125.028 15.2355Z" fill="#7272E9"/>
<path d="M139.214 14.1872H126.505C126.505 14.1601 126.505 14.137 126.505 14.1125C126.505 12.2361 126.505 10.361 126.505 8.48452C126.492 7.76047 126.695 7.04895 127.086 6.4397C127.297 6.11147 127.575 5.83243 127.903 5.62157C128.231 5.4107 128.601 5.27295 128.987 5.21769C129.613 5.11603 130.254 5.17538 130.85 5.39013C131.698 5.69427 132.227 6.3012 132.479 7.15525C132.494 7.20413 132.502 7.25572 132.52 7.3046C132.532 7.32834 132.547 7.35028 132.565 7.36977C132.582 7.3505 132.595 7.32845 132.604 7.3046C132.651 6.99246 132.739 6.68793 132.866 6.39896C133.049 5.96411 133.338 5.58213 133.707 5.28799C134.076 4.99384 134.513 4.79694 134.978 4.71531C135.675 4.5621 136.402 4.61977 137.066 4.88096C137.88 5.20411 138.424 5.80561 138.777 6.5972C138.986 7.07327 139.116 7.58063 139.161 8.09891C139.195 8.48859 139.214 8.88099 139.215 9.27203C139.215 10.8769 139.215 12.4818 139.215 14.0867L139.214 14.1872ZM137.188 11.1594C137.188 11.1281 137.188 11.1023 137.188 11.0765C137.188 10.6244 137.188 10.1736 137.188 9.71874C137.187 9.53893 137.168 9.35966 137.131 9.18378C137.087 8.91962 136.974 8.67178 136.803 8.46514C136.633 8.2585 136.411 8.10035 136.16 8.00658C135.823 7.88864 135.461 7.8624 135.111 7.93054C134.873 7.95694 134.647 8.05143 134.462 8.20266C134.276 8.3539 134.138 8.55548 134.064 8.78323C133.97 9.06136 133.924 9.35333 133.928 9.64678C133.928 10.1274 133.928 10.6081 133.928 11.0887C133.929 11.111 133.931 11.1332 133.935 11.1553L137.188 11.1594ZM128.468 11.1594H131.54C131.54 11.1336 131.54 11.1132 131.54 11.0942C131.54 10.7221 131.54 10.3501 131.54 9.97808C131.537 9.80104 131.517 9.62467 131.481 9.45126C131.446 9.22599 131.354 9.01345 131.213 8.83381C131.073 8.65417 130.889 8.51338 130.679 8.42478C130.395 8.30702 130.087 8.2604 129.781 8.289C129.542 8.29757 129.31 8.37244 129.111 8.50526C128.911 8.63808 128.753 8.82363 128.653 9.04121C128.526 9.31223 128.462 9.60831 128.466 9.90747C128.466 10.3012 128.466 10.6963 128.466 11.0901C128.466 11.1118 128.467 11.1268 128.468 11.1566V11.1594Z" fill="#7272E9"/>
<path d="M139.214 25.4433H126.501V25.3632C126.501 23.6985 126.501 22.0352 126.501 20.372C126.491 19.6205 126.655 18.877 126.98 18.1995C127.378 17.4032 128.027 16.7603 128.827 16.3706C129.418 16.077 130.049 15.8725 130.701 15.7636C131.601 15.6111 132.515 15.5587 133.427 15.6075C134.314 15.6277 135.194 15.7707 136.042 16.0325C136.617 16.2077 137.157 16.4836 137.636 16.8471C138.354 17.4074 138.855 18.1991 139.055 19.0875C139.164 19.5479 139.217 20.0197 139.212 20.4928C139.212 22.1122 139.212 23.7316 139.212 25.3509L139.214 25.4433ZM128.487 22.391H137.142C137.18 22.391 137.193 22.3747 137.192 22.338C137.184 21.8506 137.192 21.3618 137.162 20.8757C137.145 20.6171 137.076 20.3646 136.96 20.1332C136.843 19.9018 136.681 19.6962 136.483 19.5288C136.128 19.2286 135.711 19.0116 135.261 18.8933C134.668 18.7299 134.057 18.6387 133.442 18.6218C132.637 18.5705 131.829 18.6092 131.033 18.7372C130.553 18.8096 130.088 18.9635 129.659 19.192C129.312 19.3721 129.021 19.6429 128.816 19.9755C128.611 20.3081 128.5 20.6901 128.495 21.0807C128.475 21.4948 128.486 21.909 128.482 22.3231C128.482 22.3394 128.486 22.3611 128.487 22.3964V22.391Z" fill="#7272E9"/>
<path d="M66.8685 23.2626C66.8723 23.5654 66.7579 23.8577 66.5495 24.0773C66.4519 24.1887 66.3314 24.2777 66.1961 24.3379C66.0608 24.3982 65.9141 24.4283 65.766 24.4263H62.5752C62.4271 24.4284 62.2804 24.3983 62.1451 24.338C62.0098 24.2778 61.8892 24.1888 61.7918 24.0773C61.5829 23.858 61.4683 23.5655 61.4727 23.2626V1.10089H58.4679C56.8811 3.36386 55.2903 5.62322 53.6953 7.87895V22.3353C53.6953 22.4262 53.7102 22.5023 53.7116 22.5933C54.7924 24.1321 55.8718 25.6709 56.9499 27.2097C57.5446 28.057 58.1384 28.9056 58.7313 29.7556C59.4416 29.9134 60.1667 29.9953 60.8943 30H62.1163C64.5531 30 66.3711 29.3211 67.5705 27.9633V29.4148H74.6486V1.10089H66.8685V23.2626Z" fill="#4949A3"/>
<path d="M120.319 18.0108V8.84438C120.319 3.73821 117.92 1.18512 113.123 1.18512H106.569C101.771 1.18512 99.3723 3.73821 99.3723 8.84438V22.3353C99.3723 27.4406 101.771 29.9932 106.569 29.9932H113.124C117.921 29.9932 120.32 27.4406 120.32 22.3353V20.1303H112.544V23.2627C112.548 23.5654 112.434 23.8577 112.225 24.0774C112.128 24.1888 112.007 24.2777 111.872 24.338C111.736 24.3982 111.59 24.4284 111.442 24.4263H108.251C108.103 24.4284 107.956 24.3982 107.821 24.338C107.686 24.2777 107.565 24.1888 107.467 24.0774C107.259 23.858 107.144 23.5655 107.148 23.2627V18.0108H120.319ZM107.148 7.68348C107.144 7.3807 107.259 7.08836 107.467 6.86881C107.565 6.75738 107.686 6.66846 107.821 6.60821C107.956 6.54796 108.103 6.51781 108.251 6.51985H111.442C111.59 6.51781 111.736 6.54796 111.872 6.60821C112.007 6.66846 112.128 6.75738 112.225 6.86881C112.433 7.08875 112.547 7.38083 112.544 7.68348V12.9055H107.148V7.68348Z" fill="#4949A3"/>
<path d="M51.5702 10.0582L51.5715 10.0825L51.554 10.0744L51.5702 10.0582Z" fill="white"/>
<path d="M50.2682 10.0745C50.556 9.73369 50.871 9.41189 51.129 9.04801C52.7584 6.75607 54.3759 4.45824 55.9817 2.15454C56.2044 1.83682 56.4122 1.50823 56.6742 1.11176H56.1569C53.5513 1.11176 50.943 1.17014 48.3388 1.08596C47.1724 1.0493 46.4664 1.34666 45.7766 2.38265C43.3788 5.97942 40.8194 9.46756 38.3346 13.0059C37.1751 14.657 37.2009 15.8804 38.374 17.5314C38.6374 17.9008 38.894 18.2755 39.1574 18.6448C40.7488 20.8729 42.3496 23.0929 43.9287 25.3292C44.7637 26.5132 45.5675 27.7189 46.3727 28.9246C46.4572 29.0736 46.5824 29.1956 46.7337 29.2761C46.8849 29.3566 47.0559 29.3925 47.2268 29.3795C50.2003 29.3605 53.1738 29.37 56.1474 29.37H56.6511C56.5479 29.1799 56.4936 29.0536 56.4162 28.9423C55.7636 28.0054 55.1082 27.0694 54.4502 26.1344C52.366 23.1635 50.2736 20.2008 48.2044 17.2219C47.554 16.2864 47.2675 15.2314 47.7672 14.1533C48.1338 13.359 48.6579 12.6366 49.1249 11.8885C49.5051 11.2734 49.9016 10.6665 50.2913 10.0582L50.2682 10.0745ZM30.1961 15.2477C30.1961 19.7406 30.2029 24.2335 30.1852 28.7264C30.1852 29.2152 30.287 29.389 30.8125 29.3822C33.0854 29.3523 35.3584 29.3523 37.6313 29.3822C38.1174 29.3822 38.2084 29.2192 38.2043 28.7793C38.1853 26.2796 38.2043 23.7786 38.1812 21.2789C38.1622 20.9568 38.0577 20.6456 37.8784 20.3774C37.4398 19.6849 36.9375 19.0332 36.4826 18.3502C35.2429 16.486 35.0542 14.5484 36.211 12.5878C36.6795 11.7934 37.228 11.044 37.7711 10.2972C38.0656 9.90703 38.218 9.42797 38.2029 8.93939C38.1812 6.52706 38.1812 4.11427 38.2029 1.70104C38.2029 1.24754 38.0943 1.09411 37.6231 1.09954C35.3502 1.12126 33.0777 1.12126 30.8057 1.09954C30.3305 1.09954 30.1825 1.21631 30.1838 1.71326C30.2083 6.22653 30.1961 10.7371 30.1961 15.2477Z" fill="#7272E9"/>
<path d="M90.4585 7.2232H89.2365C87.303 7.2232 85.719 7.68756 84.4843 8.61628V1.24487H76.7083V29.4121H83.2636V27.3238C84.463 29.108 86.4549 30 89.2392 30H90.4613C95.2588 30 97.6575 27.4469 97.6575 22.3408V14.8825C97.6539 9.77628 95.2542 7.2232 90.4585 7.2232ZM89.2067 23.2627C89.2102 23.5654 89.0957 23.8576 88.8876 24.0774C88.7901 24.1888 88.6695 24.2777 88.5342 24.338C88.3989 24.3982 88.2522 24.4284 88.1041 24.4263H84.9133C84.7653 24.4285 84.6185 24.3983 84.4832 24.3381C84.3479 24.2778 84.2274 24.1889 84.1299 24.0774C83.9212 23.8579 83.8067 23.5655 83.8108 23.2627V13.9537C83.8069 13.651 83.9214 13.3586 84.1299 13.1391C84.2274 13.0276 84.3479 12.9386 84.4832 12.8783C84.6185 12.8181 84.7653 12.788 84.9133 12.7901H88.1041C88.2522 12.7881 88.3989 12.8182 88.5342 12.8785C88.6695 12.9387 88.7901 13.0276 88.8876 13.1391C89.0955 13.359 89.2099 13.6511 89.2067 13.9537V23.2627Z" fill="#4949A3"/>
</svg>

<svg xmlns="http://www.w3.org/2000/svg" width="143" height="30" fill="none" xmlns:v="https://vecta.io/nano"><g fill="#7272e9"><path d="M27.027 6.665v16.869l-13.241 5.624V21.72l7.437-3.084V9.024l5.805-2.358z"/><path d="M13.786.862l13.241 5.803-5.805 2.358-7.437-3.264-7.437 3.264L.725 6.665 13.786.862z"/><path d="M13.786 21.72v7.438L.725 23.534V6.665l5.624 2.358v9.613l7.437 3.084z"/></g><path d="M27.934 6.666v-.182-.182l-.182-.181L14.148.136A.55.55 0 0 0 13.786 0a.55.55 0 0 0-.363.136L.182 5.759 0 5.94v.182.181 16.869a1 1 0 0 0 .544.907l13.059 5.624h1.086l13.059-5.624a1 1 0 0 0 .402-.375c.096-.16.145-.345.141-.532l-.363-16.505h.006zM13.786 1.95l10.702 4.717-3.265 1.45-7.074-3.084c-.101-.087-.229-.136-.363-.136a.55.55 0 0 0-.363.136L6.349 7.936h-.182l-3.084-1.27L13.786 1.95zm-.907 25.757L1.632 22.804V7.936l3.81 1.629v8.893c-.004.187.045.371.141.532a.99.99 0 0 0 .402.375l6.894 2.895v5.446zm.907-6.892l-6.53-2.716V9.75l6.53-2.903 6.53 2.903v8.344l-6.53 2.721zm12.154 1.989l-11.246 4.898v-5.255l6.892-2.901c.167-.085.306-.215.402-.375s.145-.345.141-.532v-9.07l3.81-1.629.001 14.865z" fill="#4949a3"/><g fill="#fff"><path d="M21.223 18.637V9.024L13.786 5.76v9.613l7.437 3.264z"/><path d="M21.222 18.637l-7.437-3.264-7.437 3.264 7.437 3.084 7.437-3.084z"/><path d="M13.786 15.373V5.76L6.349 9.024v9.613l7.437-3.264z"/></g><path d="M21.585 8.117l-7.437-3.084h-1.086L5.988 8.117c-.364.182-.726.543-.726.907v9.613c0 .364.182.726.726.907l7.435 3.26c.1.089.229.139.363.139s.263-.049.363-.139l7.437-3.259c.364-.181.726-.543.726-.907V9.025c0-.364-.363-.726-.726-.908zM7.261 9.75l5.623-2.358v7.619l-5.623 2.362V9.75zm6.53 11.065l-5.079-2.172 5.079-2.172 5.079 2.172-5.079 2.172zm6.53-3.628l-5.623-2.358V7.21l5.623 2.358v7.619z" fill="#4949a3"/><path d="M142.592 3.912v22.661l-.03.232a2.79 2.79 0 0 1-.96 1.805 2.83 2.83 0 0 1-1.929.712h-13.799a2.77 2.77 0 0 1-1.677-.592c-.358-.267-.647-.616-.843-1.017a2.8 2.8 0 0 1-.283-1.291V9.47 4.039a2.77 2.77 0 0 1 .437-1.534 2.83 2.83 0 0 1 1.071-1.018 2.82 2.82 0 0 1 1.437-.339h13.622a3.55 3.55 0 0 1 .588.049 2.89 2.89 0 0 1 1.532.811 2.88 2.88 0 0 1 .789 1.543l.045.361zm-17.564 11.324v11.122a1.09 1.09 0 0 0 .011.206.89.89 0 0 0 .316.544.9.9 0 0 0 .595.205h13.732c.126.004.252-.019.369-.066a.92.92 0 0 0 .512-.524.93.93 0 0 0 .058-.37v-7.196V4.152c.002-.106-.01-.212-.036-.315a.89.89 0 0 0-.332-.488c-.164-.12-.363-.181-.565-.173h-12.899c-.293 0-.587-.008-.88 0-.12.004-.238.03-.349.077a.88.88 0 0 0-.402.343c-.095.153-.141.331-.132.511l.002 11.128zm14.186-1.049h-12.709v-.075-5.628c-.013-.724.19-1.436.581-2.045a2.72 2.72 0 0 1 .817-.818 2.71 2.71 0 0 1 1.084-.404 3.73 3.73 0 0 1 1.863.172c.848.304 1.377.911 1.629 1.765l.041.149a.27.27 0 0 0 .045.065.21.21 0 0 0 .039-.065c.047-.312.135-.617.262-.906a2.82 2.82 0 0 1 2.112-1.684 3.59 3.59 0 0 1 2.088.166c.814.323 1.358.925 1.711 1.716a4.76 4.76 0 0 1 .384 1.502l.054 1.173v4.815l-.001.101zm-2.026-3.028v-.083-1.358a2.67 2.67 0 0 0-.057-.535 1.52 1.52 0 0 0-.328-.719c-.17-.207-.392-.365-.643-.459a2.01 2.01 0 0 0-1.049-.076 1.24 1.24 0 0 0-.649.272 1.25 1.25 0 0 0-.398.581c-.094.278-.14.57-.136.864v1.442a.5.5 0 0 0 .007.067l3.253.004zm-8.72 0h3.072v-.065-1.116a2.83 2.83 0 0 0-.059-.527 1.33 1.33 0 0 0-.268-.617c-.14-.18-.324-.32-.534-.409a1.89 1.89 0 0 0-.898-.136 1.29 1.29 0 0 0-1.128.752 1.98 1.98 0 0 0-.187.866v1.183l.002.066v.003zm10.746 14.284h-12.713v-.08-4.991a4.87 4.87 0 0 1 .479-2.172 4.05 4.05 0 0 1 1.847-1.829c.591-.294 1.222-.498 1.874-.607a12.36 12.36 0 0 1 2.726-.156 9.59 9.59 0 0 1 2.615.425 5.08 5.08 0 0 1 1.594.815 3.94 3.94 0 0 1 1.419 2.24 5.83 5.83 0 0 1 .157 1.405v4.858l.002.092zm-10.727-3.052h8.655c.038 0 .051-.016.05-.053l-.03-1.462a1.94 1.94 0 0 0-.202-.742 1.93 1.93 0 0 0-.477-.604 3.12 3.12 0 0 0-1.222-.636 7.64 7.64 0 0 0-1.819-.271 10.85 10.85 0 0 0-2.409.115 4.26 4.26 0 0 0-1.374.455 2.16 2.16 0 0 0-1.164 1.889l-.013 1.242c0 .016.004.038.005.073v-.005z" fill="#7272e9"/><path d="M66.869 23.263a1.16 1.16 0 0 1-.319.815c-.098.111-.218.2-.353.261a1.02 1.02 0 0 1-.43.088h-3.191a1.02 1.02 0 0 1-.783-.349c-.209-.219-.324-.512-.319-.815V1.101h-3.005l-4.773 6.778v14.456c0 .091.015.167.016.258l3.238 4.616 1.781 2.546a10.28 10.28 0 0 0 2.163.244h1.222c2.437 0 4.255-.679 5.454-2.037v1.451h7.078V1.101h-7.78v22.162zm53.45-5.252V8.844c0-5.106-2.399-7.659-7.196-7.659h-6.554c-4.798 0-7.197 2.553-7.197 7.659v13.491c0 5.105 2.399 7.658 7.197 7.658h6.555c4.797 0 7.196-2.553 7.196-7.658V20.13h-7.776v3.132a1.16 1.16 0 0 1-.319.815 1.02 1.02 0 0 1-.353.261 1.03 1.03 0 0 1-.43.088h-3.191a1.02 1.02 0 0 1-.784-.349 1.16 1.16 0 0 1-.319-.815V18.01h13.171zM107.148 7.683c-.004-.303.111-.595.319-.815a1.03 1.03 0 0 1 .354-.261 1.02 1.02 0 0 1 .43-.088h3.191a1.03 1.03 0 0 1 .43.088 1.02 1.02 0 0 1 .353.261 1.17 1.17 0 0 1 .319.815v5.222h-5.396V7.683z" fill="#4949a3"/><path d="M51.57 10.058l.001.024-.017-.008.016-.016z" fill="#fff"/><path d="M50.268 10.075l.861-1.026 4.853-6.893.693-1.043h-.517c-2.606 0-5.214.058-7.818-.026-1.166-.037-1.872.261-2.562 1.297-2.398 3.597-4.957 7.085-7.442 10.623-1.16 1.651-1.134 2.874.039 4.526l.783 1.113 4.771 6.684c.835 1.184 1.639 2.39 2.444 3.595a.9.9 0 0 0 .854.454l8.921-.009h.504c-.103-.19-.157-.316-.235-.428l-1.966-2.808-6.246-8.912c-.65-.936-.937-1.991-.437-3.069.367-.794.891-1.517 1.358-2.265l1.166-1.83-.023.016zm-20.072 5.173l-.011 13.479c0 .489.102.663.627.656h6.819c.486 0 .577-.163.573-.603l-.023-7.5c-.019-.322-.123-.633-.303-.901-.439-.693-.941-1.344-1.396-2.027-1.24-1.864-1.428-3.802-.272-5.762.468-.794 1.017-1.544 1.56-2.291a2.14 2.14 0 0 0 .432-1.358v-7.24c0-.453-.109-.607-.58-.602h-6.817c-.475 0-.623.117-.622.614l.012 13.534z" fill="#7272e9"/><path d="M90.459 7.223h-1.222c-1.934 0-3.518.464-4.752 1.393V1.245h-7.776v28.167h6.555v-2.088C84.463 29.108 86.455 30 89.239 30h1.222c4.797 0 7.196-2.553 7.196-7.659v-7.458c-.004-5.106-2.403-7.659-7.199-7.659zm-1.252 16.039c.004.303-.111.595-.319.815-.098.111-.218.2-.353.261a1.02 1.02 0 0 1-.43.088h-3.191a1.02 1.02 0 0 1-.783-.349 1.16 1.16 0 0 1-.319-.815v-9.309a1.16 1.16 0 0 1 .319-.815 1.02 1.02 0 0 1 .353-.261c.135-.06.282-.09.43-.088h3.191a1.02 1.02 0 0 1 .784.349 1.17 1.17 0 0 1 .319.815v9.309z" fill="#4949a3"/></svg>
